!!!COM: Corelli, Arcangelo
!!!OPR: Sonata da camera
!!!OPS: 4
!!!ONM: 3
!!!OMV: 4
!!!OTL: Tempo di Gavotta
!!!OMD: Allegro
**kern	**fb	**kern	**kern
*part4	*part4	*part2	*part1
*staff4	*	*staff2	*staff1
*I"Violone & Cembalo	*	*I"Violino II	*I"Violino I
*clefF4	*	*clefG2	*clefG2
*k[f#c#]	*	*k[f#c#]	*k[f#c#]
*D:	*	*D:	*D:
*M2/2	*	*M2/2	*M2/2
*met(c|)	*	*met(c|)	*met(c|)
=1	=1	=1	=1
1r	.	2r	4ee
.	.	.	4b
.	.	4ee	4cc#
.	.	4b	4g#X
=2	=2	=2	=2
4A	.	4cc#	4a
4E	#	4g#X	4r
4F#	.	4a	4aa
4C#	6	4r	4ee
=3	=3	=3	=3
4D	.	4aa	4ff#
4r	.	4ee	4cc#
4d	.	4ff#	4dd
4D	.	[4dd	4f#
=4	=4	=4	=4
4E	7 #	4dd]	4g#X
4AA	.	4cc#	2a
4E	5 4	2b	.
4EE	#	.	4g#
=5	=5	=5	=5
4AA	.	4a	4a
2A	4 2	4ee	4cc#
.	.	4dd	4b
[4G#X	6	4b	4ee
=6	=6	=6	=6
4G#]	4 2	4cc#	4a
4F#	#6\	4dd#X	2aa
2E	5 4	2ee	.
.	#	.	4gg#X
=7	=7	=7	=7
4AA	.	4r	4cc#
2A	6	4cc#	4ff#
.	#4| 2	4dd#X	4b
8G#XL	6	8bL	[4ee
8AJ	.	8cc#J	.
=8	=8	=8	=8
4B	4	4b	4ee]
4BB	#	4a	4dd#X
4E	.	2g#X	4ee
[4e	6	.	4cc#
=9	=9	=9	=9
4e]	4 2	2.r	4f#
2d	6	.	4b
.	#4| 2	.	4e
4c#	6	4cc#	[4ee
=10	=10	=10	=10
4d	9	4f#	4ee]
4B	.	4b	2dd
4G#X	6 5	4e	.
4A	.	[4ee	4cc#
=11	=11	=11	=11
2D	9	4ee]	4f#
.	8 6	2dd	4b
4E	7 #	.	4g#X
4AA	.	4cc#	[4a
=12	=12	=12	=12
4E	5 4	2b	4a]
4EE	#	.	4g#X
4AA	.	2a	4a
4C#	6	.	4ee
=13	=13	=13	=13
2D	.	4r	4ff#
.	.	2dd	4f#
4E	7 #	.	4g#X
4AA	.	4cc#	[4a
=14	=14	=14	=14
2E	4	2b	4a]
.	#	.	4g#X
2AA	.	2a	2a
=15:|!|:	=15:|!|:	=15:|!|:	=15:|!|:
2r	.	2r	4cc#
.	.	.	4g#X
4F#	.	2cc#	4a
4C#	#	.	4e#X
=16	=16	=16	=16
2r	.	2r	4f#
.	.	.	4g#X
4F#	.	2cc#	4a
4C#	#	.	4g#
=17	=17	=17	=17
2r	.	2r	4cc#
.	.	.	4g#X
4F#	.	2cc#	4a
4C#	#	.	4g#
=18	=18	=18	=18
2r	.	2r	4ff#
.	.	.	4cc#
4B	.	2ff#	4dd
4F#	#	.	4a#X
=19	=19	=19	=19
2r	.	2r	4b
.	.	.	4cc#
4B	.	2ff#	4dd
4F#	#	.	4cc#
=20	=20	=20	=20
2r	.	2r	4ff#
.	.	.	4cc#
4B	.	4ff#	4dd
4F#	#	4a#X	4cc#
=21	=21	=21	=21
4D	6	4b	4ff#
4E	.	2ee	4gg
4F#	7 #	.	4a#X
4BB	.	4dd	[4b
=22	=22	=22	=22
2F#	5 4	2cc#	4b]
.	#	.	4a#X
2B	.	2b	4b
.	.	.	4ff#
=23	=23	=23	=23
2A#X	6	4r	2cc#
.	.	4ff#	.
2B	.	2dd	4r
.	.	.	4ff#
=24	=24	=24	=24
2A#X	6	4r	2cc#
.	.	4ff#	.
2B	.	2dd	4r
.	.	.	4gg#X
=25	=25	=25	=25
2B#X	6	4r	2dd#X
.	.	4gg#X	.
2c#	.	2ee	4r
.	.	.	4gg#X
=26	=26	=26	=26
2B#X	6	4r	2dd#X
.	.	4gg#X	.
2c#	.	2ee	4r
.	.	.	4gg#X
=27	=27	=27	=27
2F#	.	4r	4aa
.	.	4aa	2ff#
4G#X	7 #	4b#X	.
4C#	.	[4cc#	4ee
=28	=28	=28	=28
4G#Xi	#5\ 4	4cc#]	2dd#X
4GG	#	4b#X	.
2C#	.	2cc#	2cc#
=29	=29	=29	=29
1r	.	2r	4ee
.	.	.	4b
.	.	4ee	4cc#
.	.	4bni	4g#X
=30	=30	=30	=30
4A	.	4cc#	4a
4E	#	4g#X	4r
4F#	6	4a	4dd
4C#	6	4r	4cc#
=31	=31	=31	=31
4D	6	4dd	4b
4AA	.	4cc#	4a
4E	#	4b	4g#X
4C#	.	4cc#	4ee
=32	=32	=32	=32
4F#	.	4a	4aa
4FF#	.	2aa	4cc#
4BB	7 #	.	4dd#X
4E	#	4gg#X	[4ee
=33	=33	=33	=33
4B	5 4	2ff#	4ee]
4BB	#	.	4dd#X
4E	#	2ee	2ee
4D	#4| 2	.	.
=34	=34	=34	=34
4C#	6	1r	4aa
4AA	.	.	4cc#
4D	.	.	4ff#
4C#	6	.	4a
=35	=35	=35	=35
4BB	#6\	4g#X	2.dd
4GG#X	5	4b	.
4AA	5 4	4e	.
4A	3	[4ee	4cc#
=36	=36	=36	=36
4d	9	4ee]	4f#
4D	8 6	2dd	4b
4E	7 #	.	4g#X
4AA	.	4cc#	[4a
=37	=37	=37	=37
4E	5 4	2b	4a]
4EE	#	.	4g#X
4AA	.	2a	2a
4BB	.	.	.
=38	=38	=38	=38
4C#	6	1r	4aa
4AA	.	.	4cc#
4D	.	.	4ff#
4C#	6	.	4a
=39	=39	=39	=39
4BB	#6\	4g#X	2.dd
4GG#X	5	4b	.
4AA	5 4	4e	.
4A	3	[4ee	4cc#
=40	=40	=40	=40
4d	9	4ee]	4f#
4D	8 6	2dd	4b
4E	7 #	.	4g#X
4AA	.	4cc#	[4a
=41	=41	=41	=41
2E	5 4	2b	4a]
.	#	.	4g#X
2AA	.	2a	2a
=:|!	=:|!	=:|!	=:|!
*-	*-	*-	*-
!!!system-decoration: [{s1,s2},s3,s4]
!!!YEM: CC BY-NC-SA 4.0; CCARH; DCML
!!!RDF**kern: i = editorial accidental